assets/illustrations/mail.svg

<svg width="40" height="33" viewBox="0 0 40 33" fill="none" xmlns="http://www.w3.org/2000/svg">
<g id="mail">
<mask id="mask0_50_1121" style="mask-type:alpha" maskUnits="userSpaceOnUse" x="0" y="0" width="40" height="33">
<rect id="Bounding box" y="0.0317383" width="40" height="32" fill="#D9D9D9"/>
</mask>
<g mask="url(#mask0_50_1121)">
<path id="mail_2" d="M5.18515 30.4021C4.16663 30.4021 3.29472 30.0394 2.56941 29.3141C1.8441 28.5888 1.48145 27.7169 1.48145 26.6984V4.47616C1.48145 3.45765 1.8441 2.58573 2.56941 1.86042C3.29472 1.13512 4.16663 0.772461 5.18515 0.772461H34.8148C35.8333 0.772461 36.7052 1.13512 37.4305 1.86042C38.1558 2.58573 38.5185 3.45765 38.5185 4.47616V26.6984C38.5185 27.7169 38.1558 28.5888 37.4305 29.3141C36.7052 30.0394 35.8333 30.4021 34.8148 30.4021H5.18515ZM20 17.1151C20.1543 17.1151 20.3163 17.0919 20.4861 17.0456C20.6558 16.9993 20.8179 16.9299 20.9722 16.8373L34.074 8.64283C34.321 8.48851 34.5061 8.29561 34.6296 8.06413C34.753 7.83265 34.8148 7.57802 34.8148 7.30024C34.8148 6.68295 34.5524 6.21999 34.0277 5.91135C33.5031 5.60271 32.9629 5.61814 32.4074 5.95765L20 13.7354L7.59256 5.95765C7.037 5.61814 6.49688 5.61042 5.97219 5.9345C5.44749 6.25857 5.18515 6.71382 5.18515 7.30024C5.18515 7.60888 5.24688 7.87894 5.37033 8.11042C5.49379 8.34191 5.67898 8.51937 5.92589 8.64283L19.0277 16.8373C19.1821 16.9299 19.3441 16.9993 19.5139 17.0456C19.6836 17.0919 19.8456 17.1151 20 17.1151Z" fill="#F2EFDE"/>
</g>
</g>
</svg>

<svg width="40" height="33" fill="none" xmlns="http://www.w3.org/2000/svg"><mask id="a" style="mask-type:alpha" maskUnits="userSpaceOnUse" x="0" y="0" width="40" height="33"><path fill="#D9D9D9" d="M0 .032h40v32H0z"/></mask><g mask="url(#a)"><path d="M5.185 30.402c-1.018 0-1.89-.363-2.616-1.088-.725-.725-1.088-1.597-1.088-2.616V4.476c0-1.018.363-1.89 1.088-2.616C3.295 1.135 4.167.772 5.185.772h29.63c1.018 0 1.89.363 2.616 1.088.725.726 1.088 1.598 1.088 2.616v22.222c0 1.019-.363 1.89-1.088 2.616-.726.725-1.598 1.088-2.616 1.088H5.185ZM20 17.115a1.926 1.926 0 0 0 .972-.278l13.102-8.194a1.53 1.53 0 0 0 .556-.579c.123-.231.185-.486.185-.764 0-.617-.263-1.08-.787-1.389-.525-.308-1.065-.293-1.62.047L20 13.735 7.593 5.958c-.556-.34-1.096-.348-1.62-.024-.526.325-.788.78-.788 1.366 0 .309.062.579.185.81.124.232.309.41.556.533l13.102 8.194a1.927 1.927 0 0 0 .972.278Z" fill="#F2EFDE"/></g></svg>
